packages/sources/assets/src/assets/flag-aw.svg

<svg width="28" height="20" viewBox="0 0 28 20" fill="none" xmlns="http://www.w3.org/2000/svg">
<rect width="28" height="20" rx="2" fill="white"/>
<mask id="mask0_503_4839" style="mask-type:alpha" maskUnits="userSpaceOnUse" x="0" y="0" width="28" height="20">
<rect width="28" height="20" rx="2" fill="white"/>
</mask>
<g mask="url(#mask0_503_4839)">
<g filter="url(#filter0_d_503_4839)">
<rect width="28" height="20" fill="#4189DD"/>
</g>
<path d="M5.63061 2.51245L5.33509 1.9461L5.03957 2.51245L4.40225 3.73382L3.18088 4.37114L2.61453 4.66666L3.18088 4.96218L4.40225 5.59949L5.03957 6.82086L5.33509 7.38721L5.63061 6.82086L6.26792 5.59949L7.48929 4.96218L8.05564 4.66666L7.48929 4.37114L6.26792 3.73382L5.63061 2.51245Z" fill="#D21034" stroke="white" stroke-width="0.666667"/>
<rect y="14.6667" width="28" height="1.33333" fill="#F9D616"/>
<rect y="12" width="28" height="1.33333" fill="#F9D616"/>
</g>
<defs>
<filter id="filter0_d_503_4839" x="-1" y="0" width="30" height="22" filterUnits="userSpaceOnUse" color-interpolation-filters="sRGB">
<feFlood flood-opacity="0" result="BackgroundImageFix"/>
<feColorMatrix in="SourceAlpha" type="matrix" values="0 0 0 0 0 0 0 0 0 0 0 0 0 0 0 0 0 0 127 0" result="hardAlpha"/>
<feOffset dy="1"/>
<feGaussianBlur stdDeviation="0.5"/>
<feColorMatrix type="matrix" values="0 0 0 0 0 0 0 0 0 0 0 0 0 0 0 0 0 0 0.16 0"/>
<feBlend mode="normal" in2="BackgroundImageFix" result="effect1_dropShadow_503_4839"/>
<feBlend mode="normal" in="SourceGraphic" in2="effect1_dropShadow_503_4839" result="shape"/>
</filter>
</defs>
</svg>

<svg width="28" height="20" fill="none" xmlns="http://www.w3.org/2000/svg"><rect width="28" height="20" rx="2" fill="#fff"/><mask id="a" style="mask-type:alpha" maskUnits="userSpaceOnUse" x="0" y="0" width="28" height="20"><rect width="28" height="20" rx="2" fill="#fff"/></mask><g mask="url(#a)"><g filter="url(#b)"><path fill="#4189DD" d="M0 0h28v20H0z"/></g><path d="m5.63 2.512-.295-.566-.295.566-.638 1.222-1.221.637-.566.296.566.295 1.221.637.638 1.222.295.566.296-.566.637-1.222 1.221-.637.567-.295-.567-.296-1.221-.637-.637-1.222Z" fill="#D21034" stroke="#fff" stroke-width=".667"/><path fill="#F9D616" d="M0 14.667h28V16H0zM0 12h28v1.333H0z"/></g><defs><filter id="b" x="-1" y="0" width="30" height="22" filterUnits="userSpaceOnUse" color-interpolation-filters="sRGB"><feFlood flood-opacity="0" result="BackgroundImageFix"/><feColorMatrix in="SourceAlpha" values="0 0 0 0 0 0 0 0 0 0 0 0 0 0 0 0 0 0 127 0" result="hardAlpha"/><feOffset dy="1"/><feGaussianBlur stdDeviation=".5"/><feColorMatrix values="0 0 0 0 0 0 0 0 0 0 0 0 0 0 0 0 0 0 0.16 0"/><feBlend in2="BackgroundImageFix" result="effect1_dropShadow_503_4839"/><feBlend in="SourceGraphic" in2="effect1_dropShadow_503_4839" result="shape"/></filter></defs></svg>
